public/img/menu/bio.svg

<svg viewBox="0 0 50 50" style="shape-rendering:geometricprecision"
    xmlns="http://www.w3.org/2000/svg">
    <path class="cls-1"
        d="M13.596 7.994c-.065 0-.131 0-.197-.026-.382-.105-.593-.513-.487-.895a12.526 12.526 0 0 1 2.106-4.134 9.938 9.938 0 0 0-1.527-1.357 15.272 15.272 0 0 0-2.528 5.662.724.724 0 0 1-.856.553.724.724 0 0 1-.553-.856A16.849 16.849 0 0 1 12.451.555c.29-.395.632-.579 1.014-.553.289.014.487.158.592.224.843.58 1.62 1.264 2.278 2.041.066.079.211.237.25.5.053.395-.171.685-.25.777a11.157 11.157 0 0 0-2.054 3.911.714.714 0 0 1-.685.513v.026z"
        style="fill:#000; opacity: 0.5;" />
    <path class="cls-1"
        d="M11.911 49.468c-.382 1.093-1.448.251-1.909-.302C-.966 39.936-4.139 14.801 8.659 5.94c.619-.355 2.001-1.382 2.515-.355a.701.701 0 0 1-.422.922C-1.742 11.799.667 39.896 10.028 47.296c.356.237.632.764.487-.053-.316-3.555-1.382-7.939-2.435-11.204-.988-3.634-2.568-18.13-.079-20.487a.724.724 0 0 1 .737.829 52.018 52.018 0 0 0 .658 18.986c1.37 4.911 2.805 9.124 2.502 14.128l.013-.027z"
        style="fill:#000; opacity: 0.5;" />
    <path class="cls-1"
        d="M19.99 28.24c-.01 2.8-.76 5.5-1.49 8.11-.06.21-.23.36-.45.39h-.08a.57.57 0 0 1-.46-.25 15.857 15.857 0 0 1-2.14-5.51c-.16-.69-.29-1.3-.3-1.41-.42-3.12-1.07-6.62-2.61-9.77.05-.5.12-.99.19-1.48.05-.3-.16-.57-.46-.62-.3-.05-.57.16-.62.46v.04a8.8 8.8 0 0 0-.42-.64l-.48-.69a.546.546 0 1 1 .9-.62l.48.69c2.63 3.82 3.54 8.39 4.09 12.38.14.59.24 1.08.26 1.18.24 1.48.72 2.94 1.4 4.28.58-2.14 1.09-4.34 1.1-6.55.01-2.3-.53-4.56-1.34-6.71.05.1.14.19.25.24.37.17.74.29 1.12.39.65 1.96 1.06 4 1.05 6.09z"
        style="fill:#000; opacity: 0.5;" transform="matrix(1.31663 0 0 1.31663 -7.918 -7.765)" />
    <path class="cls-1"
        d="M12.65 18.32c-.08.49-.14.99-.19 1.48-.27-.55-.56-1.08-.89-1.6v-.04c.05-.3.32-.5.62-.46.3.05.5.32.46.62z"
        style="fill:#000; opacity: 0.5;" transform="matrix(1.31663 0 0 1.31663 -7.918 -7.765)" />
    <path class="cls-1"
        d="M17.02 21.398a7.548 7.548 0 0 1-1.475-.514.642.642 0 0 1-.329-.316c-.027-.066-.04-.131-.066-.184-1.04-2.739-2.409-5.332-3.766-7.716a.712.712 0 0 1 .264-.974.713.713 0 0 1 .974.263c1.356 2.384 2.725 4.991 3.792 7.742.224.566.421 1.133.606 1.699z"
        style="fill:#000; opacity: 0.5;" />
    <path class="cls-1"
        d="M27.316 19.805c-1.159 1.132-2.647 1.369-4.095 1.593h-.132c-1.053.184-2.185.316-3.331.316-.921 0-1.843-.092-2.752-.316-.5-.119-1-.29-1.474-.514a.638.638 0 0 1-.329-.316.428.428 0 0 1-.066-.184.759.759 0 0 1 .052-.448.73.73 0 0 1 .948-.355l.277.118c2.041.817 4.411.619 6.478.303h.131c1.133-.197 2.147-.342 2.923-.895-.513-.869-1.553-1.58-3.16-2.173-1.369-.5-2.83-.882-4.239-1.264-.777-.197-1.83-.474-2.541-1.277-.461-.513-.685-1.158-.856-1.685l-1.646-4.74-.289-.829a.71.71 0 1 1 1.342-.461l1.923 5.556c.158.434.316.895.579 1.198.382.435 1.053.632 1.83.843 1.448.382 2.949.763 4.385 1.303 2.291.843 3.673 1.975 4.226 3.463a.696.696 0 0 1-.171.764h-.013zM43.602 32.299c-.342 1.33-2.093 2.147-3.581 2.713-.342.974-1.382 1.567-2.396 1.409-.105.697.382 1.29.158 2.093-.277 1.317-1.791.908-2.686 1.053-.988.066-1.08-1.501-.079-1.54l1.277-.066c-.5-1.409-.211-3.344 1.685-3.055.619-.039.606-.855 1.857-1.382.777-.514 2.199-1.093 2.264-1.593-1.303-4.069-7.294-7.123-11.467-7.044-.804 1.106-.277 4.16-.448 5.003-.198.948-.408 1.935-.83 2.883-.5 1.12-1.316 1.87-2.146 2.476-.737.54-1.264 1.093-2.172 1.474-1.778.961-5.767 1.383-2.37 3.74.764.539-.026 1.764-.83 1.29-2.422-1.422-2.949-4.358 0-5.346l2.607-1.106c.751-.329 1.409-.961 2.291-1.566 1.567-1.067 1.554-2.489 1.936-4.135-.079-1.869-.145-2.725.171-4.384.132-.645.645-1.87 1.685-1.87 4.608-.118 9.677 2.66 12.311 6.399.698 1.001.948 1.804.763 2.541v.013z"
        style="fill:#000; opacity: 0.5;" />
    <path class="cls-1"
        d="M37.928 32.352c.829.5 3.936.83 3.805-.606-.25-1.171-1.712-.329-2.475-.553-1.962-.368-.567-2.633-3.924-2.764-1.146 0-2.265-.711-2.594-1.844-.263-.961-1.777-.513-1.474.435.421 1.409 1.685 2.554 3.133 2.831.606.144 1.672.052 2.028.46.355.724.645 1.646 1.488 2.028l.013.013zM26.315 44.952c2.581 1.146 5.332 3.503 8.347 2.568 1.027-.316 1.554-1.304 1.515-2.225l.263-6.162a.776.776 0 0 0-.737-.803.777.777 0 0 0-.804.737l-.263 6.162c0 .461-.026.671-.513.842-2.449.869-9.98-4.028-11.771-5.78a.784.784 0 0 0-1.093.027c-1.198 1.316 4.108 3.989 5.056 4.621v.013zM33.175 36.816c.974.579 1.619-1.422 2.067-1.923a.784.784 0 0 0-.237-1.066c-.988-.659-1.659 1.382-2.107 1.896a.767.767 0 0 0 .277 1.079v.014zM30.041 35.104c1.317.711 2.686-3.134 1.027-3.213-1.106.04-.579 1.475-1.251 2.041a.773.773 0 0 0 .224 1.172zM37.967 26.717c2.278.79 1.343-5.517.606-6.57-.382-.922-1.817-.303-1.409.606a7.964 7.964 0 0 1 .29 5.464c-.106.355.197.329.513.5z"
        style="fill:#000; opacity: 0.5;" />
    <path class="cls-1"
        d="M26.802 46.677c.448.263 1.067-.039 1.132-.566.079-.606.435-1.764-.5-1.896a.754.754 0 0 0-.869.645c-.039.514-.408 1.514.237 1.804v.013z"
        style="fill:#000; opacity: 0.5;" />
    <path class="cls-1"
        d="M25.367 46.137a.76.76 0 0 0 1.04-.303c.263-.579 1.238-1.711.316-2.185a.76.76 0 0 0-1.04.303c-.263.579-1.238 1.711-.316 2.185z"
        style="fill:#000; opacity: 0.5;" />
    <path class="cls-1"
        d="M24.235 45.518c.698.448 1.277-.605 1.672-1.013a.77.77 0 0 0-.079-1.08c-.724-.645-1.396.461-1.804.922-.316.368-.211.948.211 1.171zM38.428 25.15c-2.212-3.871 4.226-3.858 5.872-3.186 1.067.316 7.215 3.16 4.806 4.2-3.436 1.001-7.413 1.87-10.678-1.014zm5.425-1.711c-.988-.237-3.687-.698-4.332.381-.04.106.026.277.131.395 2.015 1.672 5.122 1.554 7.453.896-1.027-.698-2.107-1.317-3.266-1.672h.014zM28 43.017c2.818.921 3.094-.105 5.438 2.857a.77.77 0 0 0 1.08.105c1.277-1.066-2.792-4.015-3.779-3.976-1.225-.184-2.225 0-2.699-1.29-.343-1.054-4.99-3.437-5.346-1.778a.772.772 0 0 0 .58.922c3.844.816 2.62 1.382 4.713 3.16H28z"
        style="fill:#000; opacity: 0.5;" />
</svg>

<svg version="1.1" id="Layer_1" viewBox="0 0 50 50" style="shape-rendering: geometricprecision;"
  xmlns="http://www.w3.org/2000/svg">
  <path class="cls-1"
    d="M 13.596 7.994 C 13.531 7.994 13.465 7.994 13.399 7.968 C 13.017 7.863 12.806 7.455 12.912 7.073 C 13.346 5.585 14.07 4.163 15.018 2.939 C 14.557 2.438 14.044 1.977 13.491 1.582 C 12.28 3.268 11.398 5.216 10.963 7.244 C 10.884 7.626 10.502 7.876 10.107 7.797 C 9.725 7.718 9.475 7.336 9.554 6.941 C 10.055 4.65 11.055 2.438 12.451 0.555 C 12.741 0.16 13.083 -0.024 13.465 0.002 C 13.754 0.016 13.952 0.16 14.057 0.226 C 14.9 0.806 15.677 1.49 16.335 2.267 C 16.401 2.346 16.546 2.504 16.585 2.767 C 16.638 3.162 16.414 3.452 16.335 3.544 C 15.4 4.69 14.689 6.046 14.281 7.455 C 14.189 7.771 13.899 7.968 13.596 7.968 L 13.596 7.994 Z"
    style="fill: rgba(0, 0, 0, 0.5);"></path>
  <path class="cls-1"
    d="M 11.911 49.468 C 11.529 50.561 10.463 49.719 10.002 49.166 C -0.966 39.936 -4.139 14.801 8.659 5.94 C 9.278 5.585 10.66 4.558 11.174 5.585 C 11.319 5.954 11.134 6.375 10.752 6.507 C -1.742 11.799 0.667 39.896 10.028 47.296 C 10.384 47.533 10.66 48.06 10.515 47.243 C 10.199 43.688 9.133 39.304 8.08 36.039 C 7.092 32.405 5.512 17.909 8.001 15.552 C 8.461 15.539 8.804 15.947 8.738 16.381 C 7.79 22.662 8.014 29.192 9.396 35.367 C 10.766 40.278 12.201 44.491 11.898 49.495 L 11.911 49.468 Z"
    style="fill: rgba(0, 0, 0, 0.5);"></path>
  <g transform="matrix(1.316633, 0, 0, 1.316633, -7.91762, -7.765368)">
    <path class="cls-1"
      d="m19.99,28.24c-.01,2.8-.76,5.5-1.49,8.11-.06.21-.23.36-.45.39-.03,0-.05,0-.08,0-.18,0-.36-.1-.46-.25-1.05-1.67-1.78-3.57-2.14-5.51h0c-.16-.69-.29-1.3-.3-1.41-.42-3.12-1.07-6.62-2.61-9.77.05-.5.12-.99.19-1.48.05-.3-.16-.57-.46-.62-.3-.05-.57.16-.62.46,0,.01,0,.03,0,.04-.13-.22-.27-.43-.42-.64l-.48-.69c-.17-.25-.11-.59.14-.76s.59-.11.76.14l.48.69c2.63,3.82,3.54,8.39,4.09,12.38h0c.14.59.24,1.08.26,1.18.24,1.48.72,2.94,1.4,4.28.58-2.14,1.09-4.34,1.1-6.55.01-2.3-.53-4.56-1.34-6.71.05.1.14.19.25.24.37.17.74.29,1.12.39.65,1.96,1.06,4,1.05,6.09Z"
      style="fill: rgba(0, 0, 0, 0.5);"></path>
    <path class="cls-1"
      d="m12.65,18.32c-.08.49-.14.99-.19,1.48-.27-.55-.56-1.08-.89-1.6,0-.01,0-.03,0-.04.05-.3.32-.5.62-.46.3.05.5.32.46.62Z"
      style="fill: rgba(0, 0, 0, 0.5);"></path>
  </g>
  <path class="cls-1"
    d="M 17.02 21.398 C 16.519 21.279 16.019 21.108 15.545 20.884 C 15.4 20.818 15.282 20.713 15.216 20.568 C 15.216 20.568 15.216 20.568 15.216 20.568 C 15.189 20.502 15.176 20.437 15.15 20.384 C 14.11 17.645 12.741 15.052 11.384 12.668 C 11.187 12.326 11.305 11.892 11.648 11.694 C 11.99 11.497 12.425 11.615 12.622 11.957 C 13.978 14.341 15.347 16.948 16.414 19.699 C 16.638 20.265 16.835 20.832 17.02 21.398 Z"
    style="fill: rgba(0, 0, 0, 0.5);"></path>
  <path class="cls-1"
    d="M 27.316 19.805 C 26.157 20.937 24.669 21.174 23.221 21.398 L 23.089 21.398 C 22.036 21.582 20.904 21.714 19.758 21.714 C 18.837 21.714 17.915 21.622 17.006 21.398 C 16.506 21.279 16.006 21.108 15.532 20.884 C 15.387 20.818 15.268 20.713 15.203 20.568 C 15.203 20.568 15.203 20.568 15.203 20.568 C 15.163 20.516 15.15 20.45 15.137 20.384 C 15.11 20.239 15.124 20.081 15.189 19.936 C 15.361 19.581 15.782 19.423 16.137 19.581 C 16.23 19.62 16.322 19.66 16.414 19.699 C 18.455 20.516 20.825 20.318 22.892 20.002 L 23.023 20.002 C 24.156 19.805 25.17 19.66 25.946 19.107 C 25.433 18.238 24.393 17.527 22.786 16.934 C 21.417 16.434 19.956 16.052 18.547 15.67 C 17.77 15.473 16.717 15.196 16.006 14.393 C 15.545 13.88 15.321 13.235 15.15 12.708 L 13.504 7.968 L 13.215 7.139 C 13.083 6.77 13.28 6.362 13.649 6.23 C 14.018 6.098 14.426 6.296 14.557 6.678 C 14.557 6.678 16.48 12.234 16.48 12.234 C 16.638 12.668 16.796 13.129 17.059 13.432 C 17.441 13.867 18.112 14.064 18.889 14.275 C 20.337 14.657 21.838 15.038 23.274 15.578 C 25.565 16.421 26.947 17.553 27.5 19.041 C 27.605 19.304 27.539 19.607 27.329 19.805 L 27.316 19.805 Z"
    style="fill: rgba(0, 0, 0, 0.5);"></path>
  <path class="cls-1"
    d="M 43.602 32.299 C 43.26 33.629 41.509 34.446 40.021 35.012 C 39.679 35.986 38.639 36.579 37.625 36.421 C 37.52 37.118 38.007 37.711 37.783 38.514 C 37.506 39.831 35.992 39.422 35.097 39.567 C 34.109 39.633 34.017 38.066 35.018 38.027 C 35.018 38.027 36.295 37.961 36.295 37.961 C 35.795 36.552 36.084 34.617 37.98 34.906 C 38.599 34.867 38.586 34.051 39.837 33.524 C 40.614 33.01 42.036 32.431 42.101 31.931 C 40.798 27.862 34.807 24.808 30.634 24.887 C 29.83 25.993 30.357 29.047 30.186 29.89 C 29.988 30.838 29.778 31.825 29.356 32.773 C 28.856 33.893 28.04 34.643 27.21 35.249 C 26.473 35.789 25.946 36.342 25.038 36.723 C 23.26 37.684 19.271 38.106 22.668 40.463 C 23.432 41.002 22.642 42.227 21.838 41.753 C 19.416 40.331 18.889 37.395 21.838 36.407 C 21.838 36.407 24.445 35.301 24.445 35.301 C 25.196 34.972 25.854 34.34 26.736 33.735 C 28.303 32.668 28.29 31.246 28.672 29.6 C 28.593 27.731 28.527 26.875 28.843 25.216 C 28.975 24.571 29.488 23.346 30.528 23.346 C 35.136 23.228 40.205 26.006 42.839 29.745 C 43.537 30.746 43.787 31.549 43.602 32.286 L 43.602 32.299 Z"
    style="fill: rgba(0, 0, 0, 0.5);"></path>
  <path class="cls-1"
    d="M 37.928 32.352 C 38.757 32.852 41.864 33.182 41.733 31.746 C 41.483 30.575 40.021 31.417 39.258 31.193 C 37.296 30.825 38.691 28.56 35.334 28.429 C 34.188 28.429 33.069 27.718 32.74 26.585 C 32.477 25.624 30.963 26.072 31.266 27.02 C 31.687 28.429 32.951 29.574 34.399 29.851 C 35.005 29.995 36.071 29.903 36.427 30.311 C 36.782 31.035 37.072 31.957 37.915 32.339 L 37.928 32.352 Z"
    style="fill: rgba(0, 0, 0, 0.5);"></path>
  <path class="cls-1"
    d="M 26.315 44.952 C 28.896 46.098 31.647 48.455 34.662 47.52 C 35.689 47.204 36.216 46.216 36.177 45.295 C 36.177 45.295 36.44 39.133 36.44 39.133 C 36.453 38.711 36.124 38.343 35.703 38.33 C 35.281 38.316 34.913 38.646 34.899 39.067 L 34.636 45.229 C 34.636 45.69 34.61 45.9 34.123 46.071 C 31.674 46.94 24.143 42.043 22.352 40.291 C 22.049 40.002 21.562 40.015 21.259 40.318 C 20.061 41.634 25.367 44.307 26.315 44.939 L 26.315 44.952 Z"
    style="fill: rgba(0, 0, 0, 0.5);"></path>
  <path class="cls-1"
    d="M 33.175 36.816 C 34.149 37.395 34.794 35.394 35.242 34.893 C 35.466 34.538 35.36 34.064 35.005 33.827 C 34.017 33.168 33.346 35.209 32.898 35.723 C 32.661 36.091 32.793 36.592 33.175 36.802 L 33.175 36.816 Z"
    style="fill: rgba(0, 0, 0, 0.5);"></path>
  <path class="cls-1"
    d="M 30.041 35.104 C 31.358 35.815 32.727 31.97 31.068 31.891 C 29.962 31.931 30.489 33.366 29.817 33.932 C 29.501 34.301 29.62 34.88 30.041 35.104 Z"
    style="fill: rgba(0, 0, 0, 0.5);"></path>
  <path class="cls-1"
    d="M 37.967 26.717 C 40.245 27.507 39.31 21.2 38.573 20.147 C 38.191 19.225 36.756 19.844 37.164 20.753 C 37.901 22.451 38.007 24.439 37.454 26.217 C 37.348 26.572 37.651 26.546 37.967 26.717 Z"
    style="fill: rgba(0, 0, 0, 0.5);"></path>
  <path class="cls-1"
    d="M 26.802 46.677 C 27.25 46.94 27.869 46.638 27.934 46.111 C 28.013 45.505 28.369 44.347 27.434 44.215 C 27.013 44.149 26.618 44.439 26.565 44.86 C 26.526 45.374 26.157 46.374 26.802 46.664 L 26.802 46.677 Z"
    style="fill: rgba(0, 0, 0, 0.5);"></path>
  <path class="cls-1"
    d="M 25.367 46.137 C 25.736 46.348 26.21 46.203 26.407 45.834 C 26.67 45.255 27.645 44.123 26.723 43.649 C 26.355 43.438 25.881 43.583 25.683 43.952 C 25.42 44.531 24.445 45.663 25.367 46.137 Z"
    style="fill: rgba(0, 0, 0, 0.5);"></path>
  <path class="cls-1"
    d="M 24.235 45.518 C 24.933 45.966 25.512 44.913 25.907 44.505 C 26.183 44.189 26.144 43.702 25.828 43.425 C 25.104 42.78 24.432 43.886 24.024 44.347 C 23.708 44.715 23.813 45.295 24.235 45.518 Z"
    style="fill: rgba(0, 0, 0, 0.5);"></path>
  <path class="cls-1"
    d="M 38.428 25.15 C 36.216 21.279 42.654 21.292 44.3 21.964 C 45.367 22.28 51.515 25.124 49.106 26.164 C 45.67 27.165 41.693 28.034 38.428 25.15 Z M 43.853 23.439 C 42.865 23.202 40.166 22.741 39.521 23.82 C 39.481 23.926 39.547 24.097 39.652 24.215 C 41.667 25.887 44.774 25.769 47.105 25.111 C 46.078 24.413 44.998 23.794 43.839 23.439 L 43.853 23.439 Z"
    style="fill: rgba(0, 0, 0, 0.5);"></path>
  <path class="cls-1"
    d="M 28 43.017 C 30.818 43.938 31.094 42.912 33.438 45.874 C 33.714 46.203 34.188 46.243 34.518 45.979 C 35.795 44.913 31.726 41.964 30.739 42.003 C 29.514 41.819 28.514 42.003 28.04 40.713 C 27.697 39.659 23.05 37.276 22.694 38.935 C 22.602 39.357 22.865 39.765 23.274 39.857 C 27.118 40.673 25.894 41.239 27.987 43.017 L 28 43.017 Z"
    style="fill: rgba(0, 0, 0, 0.5);"></path>
</svg>
